X:1
T:Ode to joy Music by ludwig van beethoven
C:Beethoven
%%score { 1 | ( 2 3 ) }
L:1/4
Q:1/4=90
M:4/4
I:linebreak $
K:Emin
V:1 treble 
V:2 bass 
V:3 bass 
V:1
"_Stately" !3!!1![GB] [GB] [Ac] [Bd] | [Bd] [Ac] [GB] !4!!2![FA] | !3!G G A B | [GB]3/2 A/ [FA]2 |$ %4
 [GB] [GB] [Ac] [Bd] | [Bd] [Ac] [GB] [FA] | G G"C" A"G" B |"D7" [FA]3/2 G/"G" G2 |$ %8
"D" !4!!2![DA]2"G" !5!B G |"D" [DA] B/c/"G" B G |"D" [DA] B/c/"B" [FB] [FA] | %11
"Em" [EG]"A" [EA]"D" D"G" !3!!1![GB]- |$ [GB] [GB]"G7" [Ac] [Bd] |"C" [Bd] [Ac] [GB]"Am" A | %14
"G" G G"D7" [FA]"G" [GB] |"D7" [FA]3/2 G/"G" G2 |] %16
V:2
 !1!!4![G,D]2 [G,D]2 | [D,D]2 [D,D]2 | B, B, C D | [D,D]2 [D,D]2 |$ [G,D]2 [G,D]2 | [D,D]2 [D,D]2 | %6
 B, B, C D | [D,C]2 [G,B,]2 |$ !2!F,2 G, E, | F,2 G, E, | F,2 ^D, B,, | E, ^C, [D,F,] !1!G, |$ %12
 G,2 [=F,G,]2 | G,2- G, A, | [D,B,] [B,F] [A,C] [G,B,] | [D,C]2 [G,B,]2 |] %16
V:3
 x4 | x4 | G, z G,2 | x4 |$ x4 | x4 | G, z G,2 | x4 |$ x4 | x4 | x4 | x4 |$ x4 | E,2 C,2 | x4 | %15
 x4 |] %16

